src/resources/icons/folder.svg

<svg xmlns="http://www.w3.org/2000/svg" viewBox="0 0 32 32"><path fill="#8d6e63" d="m13.844 7.536-1.288-1.072A2 2 0 0 0 11.276 6H4a2 2 0 0 0-2 2v16a2 2 0 0 0 2 2h24a2 2 0 0 0 2-2V10a2 2 0 0 0-2-2H15.124a2 2 0 0 1-1.28-.464"/><rect width="18" height="6" x="14" y="22" fill="#d7ccc8" rx="1"/></svg>

<?xml version="1.0" encoding="UTF-8" standalone="no"?>
<!DOCTYPE svg PUBLIC "-//W3C//DTD SVG 1.1//EN" "http://www.w3.org/Graphics/SVG/1.1/DTD/svg11.dtd">
<svg width="100%" height="100%" viewBox="0 0 32 32" version="1.1" xmlns="http://www.w3.org/2000/svg" xmlns:xlink="http://www.w3.org/1999/xlink" xml:space="preserve" xmlns:serif="http://www.serif.com/" style="fill-rule:evenodd;clip-rule:evenodd;stroke-linejoin:round;stroke-miterlimit:2;">
    <path d="M13.844,7.536L12.556,6.464C12.197,6.164 11.744,6 11.276,6L4,6C2.903,6 2,6.903 2,8L2,24C2,25.097 2.903,26 4,26L28,26C29.097,26 30,25.097 30,24L30,10C30,8.903 29.097,8 28,8L15.124,8C14.656,8 14.203,7.836 13.844,7.536" style="fill:rgb(64,124,191);fill-rule:nonzero;"/>
</svg>
